source/assets/images/icons/thumbs-up.svg

<?xml version="1.0" encoding="UTF-8" standalone="no"?>
<!DOCTYPE svg PUBLIC "-//W3C//DTD SVG 1.1//EN" "http://www.w3.org/Graphics/SVG/1.1/DTD/svg11.dtd">
<svg width="100%" height="100%" viewBox="0 0 20 20" version="1.1" xmlns="http://www.w3.org/2000/svg" xmlns:xlink="http://www.w3.org/1999/xlink" xml:space="preserve" xmlns:serif="http://www.serif.com/" style="fill-rule:evenodd;clip-rule:evenodd;stroke-linejoin:round;stroke-miterlimit:2;">
    <path d="M11,0L12,0L12,3L15,10L15,18C15,19.097 14.097,20 13,20L5,20C3.9,20 2.69,19.16 2.3,18.12L0,12L0,10C-0,8.903 0.903,8 2,8L9,8L9,2C9,0.903 9.903,0 11,0ZM17,10L20,10L20,20L17,20L17,10Z" style="fill-rule:nonzero;"/>
</svg>

<svg xmlns="http://www.w3.org/2000/svg" viewBox="0 0 20 20" class="h-5 w-5"><path d="M11 0h1v3l3 7v8a2 2 0 0 1-2 2H5c-1.1 0-2.31-.84-2.7-1.88L0 12v-2a2 2 0 0 1 2-2h7V2a2 2 0 0 1 2-2zm6 10h3v10h-3V10z"/></svg>
